X: 20304
T: John Brady's
R: jig
M: 6/8
K: Edorian
|:E2 G Bed|(3Bcd B AFD|EFG Bed|BAG F3|
E2 G Bed|(3Bcd B AFD|G2 A Bed|BAG Bcd:|
|:E2 F ~G3|AGA BAB|~e3 gfe|fed Bcd|
e2f gfe|fed BAF|DEF ~G3|~F3Bcd:|

